X: 1
T: Maple Sugar
C: Ward Allen
M: C|
S: handout at Roaring Jelly practice, 2017-6-17
R: square
K: A
c2 d2^d2 |\
"A"e4 e3f | e2d2 c2B2 | c2 c4 d2 | c4 d2c2 |\
"E7"c2B2 B2c2 |[1 d4 c2B2 | "A"d2c2 c2=c2 | ^c2 :|\
[2 d2d2 c2B2 | "A"A2a2 e2c2 | A2 |]
K: E
|: G2 A2c2 |\
"E"B4 B3c | B2G2 B2e2 | g4 g3f | e2B2 d2e2 |\
"B7"f4 f3g | f2d2 c2d2 |[1 "E"e2e2 d2c2 | B2 :|\
[2 "E"e4 d4 | "E7"=d2 :|["End" "E"e8- | e2 |]
